archdroid-icon-theme/Archdroid-DeepOrange/devices/scalable/uninterruptible-power-supply.svg

<svg xmlns="http://www.w3.org/2000/svg" viewBox="0 0 48.00000000000001 48" fill="#FF5722"><path d="m18 4c-2.216 0-4 1.784-4 4v32c0 2.216 1.784 4 4 4h12c2.216 0 4-1.784 4-4v-32c0-2.216-1.784-4-4-4h-12m8 7v11h4l-8 15v-11h-4l8-15" fill="#4caf50"/></svg>

<?xml version="1.0" encoding="UTF-8" standalone="no"?>
<svg
   xmlns:dc="http://purl.org/dc/elements/1.1/"
   xmlns:cc="http://creativecommons.org/ns#"
   xmlns:rdf="http://www.w3.org/1999/02/22-rdf-syntax-ns#"
   xmlns:svg="http://www.w3.org/2000/svg"
   xmlns="http://www.w3.org/2000/svg"
   xmlns:sodipodi="http://sodipodi.sourceforge.net/DTD/sodipodi-0.dtd"
   xmlns:inkscape="http://www.inkscape.org/namespaces/inkscape"
   width="48"
   height="48"
   viewBox="0 0 48.00000000000001 48"
   id="svg2"
   version="1.1"
   inkscape:version="0.91 r13725"
   sodipodi:docname="uninterruptible-power-supply.svg"
   style="fill:#FF5722">
  <metadata
     id="metadata10">
    <rdf:RDF>
      <cc:Work
         rdf:about="">
        <dc:format>image/svg+xml</dc:format>
        <dc:type
           rdf:resource="http://purl.org/dc/dcmitype/StillImage" />
        <dc:title />
      </cc:Work>
    </rdf:RDF>
  </metadata>
  <defs
     id="defs8" />
  <sodipodi:namedview
     pagecolor="#ffffff"
     bordercolor="#666666"
     borderopacity="1"
     objecttolerance="10"
     gridtolerance="10"
     guidetolerance="10"
     inkscape:pageopacity="0"
     inkscape:pageshadow="2"
     inkscape:window-width="1366"
     inkscape:window-height="713"
     id="namedview6"
     showgrid="false"
     fit-margin-top="0"
     fit-margin-left="0"
     fit-margin-right="0"
     fit-margin-bottom="0"
     inkscape:zoom="4.890030063882015"
     inkscape:cx="-3.605455830419416"
     inkscape:cy="17.78221803524332"
     inkscape:window-x="0"
     inkscape:window-y="30"
     inkscape:window-maximized="1"
     inkscape:current-layer="svg2"
     inkscape:snap-bbox="true"
     inkscape:bbox-nodes="true" />
  <path
     style="opacity:1;fill:#FF5722;fill-opacity:1;fill-rule:nonzero;stroke:none;stroke-width:3;stroke-miterlimit:4;stroke-dasharray:none;stroke-opacity:1"
     d="M 18 4 C 15.784 4.000000000000001 14 5.784 14 8 L 14 40 C 14 42.216 15.784 44 18 44 L 30 44 C 32.216 44 34 42.216 34 40 L 34 8 C 34 5.784000000000001 32.216 4 30 4 L 18 4 z M 26 11 L 26 22 L 30 22 L 22 37 L 22 26 L 18 26 L 26 11 z "
     id="rect4133" />
</svg>
